Numix/48/actions/db-step-out.svg

<?xml version="1.0" encoding="UTF-8" standalone="no"?>
<svg
   xmlns:dc="http://purl.org/dc/elements/1.1/"
   xmlns:cc="http://creativecommons.org/ns#"
   xmlns:rdf="http://www.w3.org/1999/02/22-rdf-syntax-ns#"
   xmlns:svg="http://www.w3.org/2000/svg"
   xmlns="http://www.w3.org/2000/svg"
   xmlns:sodipodi="http://sodipodi.sourceforge.net/DTD/sodipodi-0.dtd"
   xmlns:inkscape="http://www.inkscape.org/namespaces/inkscape"
   width="48"
   height="48"
   viewBox="0 0 48 48"
   id="svg2"
   version="1.1"
   inkscape:version="0.91 r13725"
   sodipodi:docname="db-step-out.svg">
  <metadata
     id="metadata14">
    <rdf:RDF>
      <cc:Work
         rdf:about="">
        <dc:format>image/svg+xml</dc:format>
        <dc:type
           rdf:resource="http://purl.org/dc/dcmitype/StillImage" />
        <dc:title></dc:title>
      </cc:Work>
    </rdf:RDF>
  </metadata>
  <defs
     id="defs12" />
  <sodipodi:namedview
     pagecolor="#ffffff"
     bordercolor="#666666"
     borderopacity="1"
     objecttolerance="10"
     gridtolerance="10"
     guidetolerance="10"
     inkscape:pageopacity="0"
     inkscape:pageshadow="2"
     inkscape:window-width="1366"
     inkscape:window-height="704"
     id="namedview10"
     showgrid="false"
     inkscape:zoom="1"
     inkscape:cx="9.3461041"
     inkscape:cy="12.535534"
     inkscape:window-x="0"
     inkscape:window-y="27"
     inkscape:window-maximized="1"
     inkscape:current-layer="svg2">
    <inkscape:grid
       type="xygrid"
       id="grid4207" />
  </sodipodi:namedview>
  <path
     style="opacity:1;fill:#888888;fill-opacity:1;stroke:none;stroke-width:2;stroke-linecap:butt;stroke-linejoin:miter;stroke-miterlimit:4;stroke-dasharray:none;stroke-opacity:1"
     d="m 6,8 0,12 c 5.333334,0 10.666666,0 16,0 L 22,8 Z M 8.0000002,10 20,10 20,18 8.0000002,18 Z M 6,28 6,40 22,40 22,28 C 16.666666,28 11.333334,28 6,28 Z M 8.0000002,30 20,30 20,38 8.0000002,38 Z"
     id="rect4135"
     inkscape:connector-curvature="0"
     sodipodi:nodetypes="cccccccccccccccccccc" />
  <path
     inkscape:connector-curvature="0"
     style="color:#bebebe;fill:#268bd2;fill-opacity:1"
     d="m 15,22 c 19.546796,0 22,6 22,12 l 6,0 -10,10 -10,-10 6,0 C 29,29.406624 25.875,24.875 15,22 Z"
     id="path4-1-4"
     sodipodi:nodetypes="ccccccc" />
</svg>

<svg xmlns="http://www.w3.org/2000/svg" viewBox="0 0 48 48">
 <path d="m 6 8 0 12 c 5.333 0 10.667 0 16 0 l 0 -12 m -14 2 12 0 0 8 -12 0 m -2 10 0 12 16 0 0 -12 c -5.333 0 -10.667 0 -16 0 m 2 2 12 0 0 8 -12 0" style="fill:#888;opacity:1;fill-opacity:1;stroke:none"/>
 <path d="m 15 22 c 19.547 0 22 6 22 12 l 6 0 -10 10 -10 -10 6 0 c 0 -4.593 -3.125 -9.125 -14 -12" style="fill:#268bd2;fill-opacity:1;color:#bebebe"/>
</svg>
